X: 28927
T: Näcken Valsen
R: waltz
M: 3/4
K: Eminor
E2 GB ef|g2 f2 e2|f2 e2 ^d2|ef ga b2|A2 ce ab|a2 g2 f2|B2 ^d2 d2|e6:|
|:g3 f e2|f3 e ^d|e3 e e2|e2 b2 g2|f3 f f2|f2 ^d2 f2|e3 e e2|e6:|

